/* XPM */
static char * wifi_xpm[] = {
"32 32 3 1",
" c None",
".c #2196F3",
"+c #1976D2",
"                                ",
"                                ",
"                                ",
"      ....          ....        ",
"    ..    ..      ..    ..      ",
"   .        .    .        .     ",
"  .          .  .          .    ",
"                                ",
"        ..          ..          ",
"       .  .        .  .         ",
"      .    .      .    .        ",
"                                ",
"          ..  ..                ",
"         .      .               ",
"                                ",
"            ..                  ",
"            ..                  ",
"                                ",
"                                ",
"                                ",
"                                ",
"                                ",
"                                ",
"                                ",
"                                ",
"                                ",
"                                ",
"                                ",
"                                ",
"                                ",
"                                ",
"                                "};
